X:473
T:Matt People's #2
R:reel
D:Molloy, Peoples, Brady
Z:id:hn-reel-473
M:C|
K:D
FABc d2BA|dABA FE~E2|FABc d2BA|1 effe dBBA:|2 effe dBAB||
|:d2~d2 adbd|adde feef|1 ad~d2 a2af|egfe dBAB:|2 ~a3f b2af|egfe dBBA||
